**kern	**kern	**dynam
*part1	*part1	*part1
*staff2	*staff1	*
*I"Piano	*	*
*clefF4	*clefG2	*
*k[f#]	*k[f#]	*
=1	=1	=1
4GG 4D	4c 4d 4f# 4a	<
2c 2d	2f# 2a 2dd	.
8.BL 8.d	8.f#L 8.b 8.dd	[ >
16AJk 16d	16f#Jk 16cc 16dd	.
=	=	=
4A 4d	4f# 4cc 4dd	] <
2G 2fn 2g	2b 2dd 2gg	[ >
8.eL 8.g	8.bL 8.ee 8.gg	.
16dJk 16g	16bJk 16ffn 16gg	]
=	=	=
*	*^	*
1d 1g	1b 1ffn 1gg	4rcyy	<
.	.	4rcyy	.
.	.	4rcyy	[ >
.	.	4rcyy	.
*	*v	*v	*
=||	=||	=||
*k[]	*k[]	*
.	8qee/	]
8c 8g	8cc 8ee	.
8r	(8e'L 8g	p
4r	8e' 8g	.
.	8e'J) 8g	.
2r	(8e'L 8g	.
.	8e' 8g	.
.	8e' 8g#X	.
.	8e'J) 8g#	.
=	=	=
4r	8eL 8a	.
.	8e 8a	.
(2Fn	8e 8a	.
.	8eJ 8a	.
.	8eL 8a	.
.	8e 8a	.
[4C#X	8fn 8a	.
.	8fJ 8a	.
=	=	=
4C#]	8fL 8a	.
.	8f 8a	.
2D)	8f 8a	.
.	8fJ 8a	.
.	8fL 8a	.
.	8f 8a	.
4r	8f#X 8a	.
.	8f#J 8a	.
=	=	=
4r	8fL 8b	.
.	8f 8b	.
(2G	8f 8b	p
.	8fJ 8b	.
.	8fL 8b	.
.	8f 8b	.
[4D#X	8f#X 8b	.
.	8f#J 8b	.
=	=	=
*-	*-	*-
!!!system-decoration: {(s1,s2)}
